X:296
T:The Toormore
R:slide
M:12/8
L:1/8
K:Bmin
|:F2B BAB d2e faf|e2e efe c2e a3|F2B BAB d2e faf|e2d B2A B3 B3:|
|:f3 e3 d3 c3|BAB edB A2F EDE|F2B BAB d2e faf|e2d B2A B3 B3:|

